svg/icon/fun.svg

<svg height="32" viewBox="0 0 32 32" width="32" xmlns="http://www.w3.org/2000/svg" xmlns:xlink="http://www.w3.org/1999/xlink"><defs><linearGradient id="a" x1="50%" x2="50%" y1="0%" y2="100%"><stop offset="0" stop-color="#fff" stop-opacity=".5"/><stop offset="1" stop-opacity=".5"/></linearGradient><circle id="b" cx="16" cy="15" r="15"/><filter id="c" height="111.7%" width="111.7%" x="-5.8%" y="-4.2%"><feOffset dy=".5" in="SourceAlpha" result="shadowOffsetOuter1"/><feGaussianBlur in="shadowOffsetOuter1" result="shadowBlurOuter1" stdDeviation=".5"/><feComposite in="shadowBlurOuter1" in2="SourceAlpha" operator="out" result="shadowBlurOuter1"/><feColorMatrix in="shadowBlurOuter1" values="0 0 0 0 0   0 0 0 0 0   0 0 0 0 0  0 0 0 0.199473505 0"/></filter><path id="d" d="m12.8410094 25.5381722c-1.2581153-.3449936-2.4312152-.9420798-3.44656947-1.7542403-1.00047461-.7627512-1.86572796-1.6849521-2.56030873-2.7288182-.74065667-1.0980874-1.2744463-2.3197448-1.5755746-3.6059383-.34474213-1.5406614-.34474213-3.1373126 0-4.677974.29380135-1.3032719.79221862-2.5529064 1.47710119-3.70339617 1.00266389-1.59204826 2.43525093-2.87483041 4.13588331-3.70339613.5972218-.31812328 1.2237192-.57919103 1.8709949-.77966234.9847341 1.16949351 1.9694682 2.43644482 2.9542023 3.70339612.0984734.19491559.2954203.29237338.3938937.48728897-.9877443.04097998-1.9578585.27273038-2.855729.68220455-.7937638.41068936-1.4967908.9739368-2.0679416 1.6567825-.5619747.7352154-.9947517 1.5588952-1.28015441 2.4364448-.26297306 1.0609853-.22892976 2.1728275.09847341 3.2161072l4.2343567-3.313565c.9847342 1.2669513 1.9694683 2.4364448 2.9542024 3.7033961-1.3786278 1.0720358-2.8557289 2.1440715-4.2343567 3.313565 1.3786278 1.7542403 2.8557289 3.6059383 4.2343567 5.4576364-1.4559441.1703645-2.9317956.0375799-4.3328301-.3898312zm9.3839537-11.8062663c-.0358834-.1590778-.0783718-.3170171-.1274529-.4734156-.1330134.1034327-3.0633817 2.3202238-4.2343568 3.313565-.9847341-1.2669513-1.9694682-2.4364448-2.9542024-3.7033962 1.3786278-1.0720357 2.855729-2.1440714 4.2343568-3.31356491-1.3786278-1.75424027-2.7572556-3.50848054-4.2343568-5.3601786 0-.0974578-.0984734-.0974578-.0984734-.19491559h1.3786278c2.5259598.02333633 4.9642502.91964649 6.8931389 2.53390261.9400392.76878102 1.7394787 1.69184119 2.3633619 2.7288182.7347763 1.11631209 1.2059857 2.38211799 1.3786278 3.70339609.2638128 1.5189954.2303828 3.0740009-.0984735 4.5805163-.2818862 1.2623134-.8177282 2.4555233-1.5755746 3.5084805-.6613919 1.0108718-1.4942477 1.9010791-2.4618353 2.6313605-.9423648.8103216-2.0510357 1.4088142-3.2496226 1.7542402-.8862607-1.0720357-1.674048-2.0466136-2.4618353-3.1186493-.294319-.3334224-.557962-.6921927-.7877873-1.0720358 1.8886109.0062596 3.6724129-.8584283 4.8251972-2.338987.567191-.7180792.9703434-1.5493177 1.181681-2.4364448.1833352-.7396804.1929951-1.653911.0289795-2.7426916zm-4.6507779 8.1602448c.6184591.8416107 1.2367929 1.6269918 2.1174977 2.699097.9207474-.327268 1.7773854-.8243405 2.5488123-1.4859836.8999556-.6792366 1.6745969-1.5072206 2.3081453-2.4742169.7003175-.9730263 1.1954833-2.0756585 1.4552237-3.2387625.3088852-1.4150267.340285-2.8755986.087918-4.3324274-.1584133-1.2123817-.5907868-2.3738629-1.2807534-3.42318621-.5805579-.96496472-1.3244808-1.82392349-2.2056652-2.54463296-1.7749708-1.48544467-4.0128524-2.31846726-6.3285395-2.35991391.9127215 1.14915764 1.8371669 2.32265129 3.4494602 4.37422024l.4323483.55014325-.5346825.45357249c-.6239662.5293122-1.2815758 1.0528037-2.1450913 1.7158628-.0692313.05316-.9055759.6902641-1.533677 1.1713315.2591317.3266375.5587148.6988246 1.0175815 1.2664922.4537415.5613271.7534815.9336678 1.0126831 1.2602117.4569478-.3729105.9553794-.764491 1.552156-1.2227319.0960822-.0737777 1.669708-1.2722955 2.1136153-1.6174826l.8434494-.6558752.3181584 1.0138209c.3672009 1.1700965.4053824 2.4170897.1119996 3.6006411-.2358357.9899626-.6857215 1.917558-1.3155124 2.7148617-1.0134556 1.3016142-2.4616791 2.1788966-4.0605298 2.4941117.0116985.0135749.0234986.0271895.0354023.0408466z"/><filter id="e" height="113.6%" width="113.6%" x="-6.8%" y="-6.8%"><feOffset in="SourceAlpha" result="shadowOffsetOuter1"/><feGaussianBlur in="shadowOffsetOuter1" result="shadowBlurOuter1" stdDeviation=".5"/><feColorMatrix in="shadowBlurOuter1" values="0 0 0 0 0   0 0 0 0 0   0 0 0 0 0  0 0 0 0.204257246 0"/></filter></defs><g fill="none" fill-rule="evenodd"><use fill="#000" filter="url(#c)" xlink:href="#b"/><use fill="#ed1968" xlink:href="#b"/><use fill="url(#a)" xlink:href="#b"/><circle cx="16" cy="15" r="14.5" stroke="#000" stroke-opacity=".097"/><g fill-rule="nonzero"><use fill="#000" filter="url(#e)" xlink:href="#d"/><use fill="#fff" fill-rule="evenodd" xlink:href="#d"/></g></g></svg>

<svg xmlns="http://www.w3.org/2000/svg" xmlns:xlink="http://www.w3.org/1999/xlink" width="32" height="32" viewBox="0 0 32 32">
  <defs>
    <linearGradient id="fun-c" x1="50%" x2="50%" y1="0%" y2="100%">
      <stop offset="0%" stop-color="#FFF" stop-opacity=".5"/>
      <stop offset="100%" stop-opacity=".5"/>
    </linearGradient>
    <circle id="fun-b" cx="16" cy="15" r="15"/>
    <filter id="fun-a" width="111.7%" height="111.7%" x="-5.8%" y="-4.2%" filterUnits="objectBoundingBox">
      <feOffset dy=".5" in="SourceAlpha" result="shadowOffsetOuter1"/>
      <feGaussianBlur in="shadowOffsetOuter1" result="shadowBlurOuter1" stdDeviation=".5"/>
      <feComposite in="shadowBlurOuter1" in2="SourceAlpha" operator="out" result="shadowBlurOuter1"/>
      <feColorMatrix in="shadowBlurOuter1" values="0 0 0 0 0   0 0 0 0 0   0 0 0 0 0  0 0 0 0.199473505 0"/>
    </filter>
    <path id="fun-e" d="M12.8410094,25.5381722 C11.5828941,25.1931786 10.4097942,24.5960924 9.39443993,23.7839319 C8.39396532,23.0211807 7.52871197,22.0989798 6.8341312,21.0551137 C6.09347453,19.9570263 5.5596849,18.7353689 5.2585566,17.4491754 C4.91381447,15.908514 4.91381447,14.3118628 5.2585566,12.7712014 C5.55235795,11.4679295 6.05077522,10.218295 6.73565779,9.06780523 C7.73832168,7.47575697 9.17090872,6.19297482 10.8715411,5.3644091 C11.4687629,5.04628582 12.0952603,4.78521807 12.742536,4.58474676 C13.7272701,5.75424027 14.7120042,7.02119158 15.6967383,8.28814288 C15.7952117,8.48305847 15.9921586,8.58051626 16.090632,8.77543185 C15.1028877,8.81641183 14.1327735,9.04816223 13.234903,9.4576364 C12.4411392,9.86832576 11.7381122,10.4315732 11.1669614,11.1144189 C10.6049867,11.8496343 10.1722097,12.6733141 9.88680699,13.5508637 C9.62383393,14.611849 9.65787723,15.7236912 9.9852804,16.7669709 L14.2196371,13.4534059 C15.2043713,14.7203572 16.1891054,15.8898507 17.1738395,17.156802 C15.7952117,18.2288378 14.3181106,19.3008735 12.9394828,20.470367 C14.3181106,22.2246073 15.7952117,24.0763053 17.1738395,25.9280034 C15.7178954,26.0983679 14.2420439,25.9655833 12.8410094,25.5381722 Z M22.2249631,13.7319059 C22.1890797,13.5728281 22.1465913,13.4148888 22.0975102,13.2584903 C21.9644968,13.361923 19.0341285,15.5787141 17.8631534,16.5720553 C16.8784193,15.305104 15.8936852,14.1356105 14.908951,12.8686591 C16.2875788,11.7966234 17.76468,10.7245877 19.1433078,9.55509419 C17.76468,7.80085392 16.3860522,6.04661365 14.908951,4.19491559 C14.908951,4.09745779 14.8104776,4.09745779 14.8104776,4 L16.1891054,4 C18.7150652,4.02333633 21.1533556,4.91964649 23.0822443,6.53390261 C24.0222835,7.30268363 24.821723,8.2257438 25.4456062,9.26272081 C26.1803825,10.3790329 26.6515919,11.6448388 26.824234,12.9661169 C27.0880468,14.4851123 27.0546168,16.0401178 26.7257605,17.5466332 C26.4438743,18.8089466 25.9080323,20.0021565 25.1501859,21.0551137 C24.488794,22.0659855 23.6559382,22.9561928 22.6883506,23.6864742 C21.7459858,24.4967958 20.6373149,25.0952884 19.438728,25.4407144 C18.5524673,24.3686787 17.76468,23.3941008 16.9768927,22.3220651 C16.6825737,21.9886427 16.4189307,21.6298724 16.1891054,21.2500293 C18.0777163,21.2562889 19.8615183,20.391601 21.0143026,18.9110423 C21.5814936,18.1929631 21.984646,17.3617246 22.1959836,16.4745975 C22.3793188,15.7349171 22.3889787,14.8206865 22.2249631,13.7319059 Z M17.5741852,21.8921507 C18.1926443,22.7337614 18.8109781,23.5191425 19.6916829,24.5912477 C20.6124303,24.2639797 21.4690683,23.7669072 22.2404952,23.1052641 C23.1404508,22.4260275 23.9150921,21.5980435 24.5486405,20.6310472 C25.248958,19.6580209 25.7441238,18.5553887 26.0038642,17.3922847 C26.3127494,15.977258 26.3441492,14.5166861 26.0917822,13.0598573 C25.9333689,11.8474756 25.5009954,10.6859944 24.8110288,9.63667109 C24.2304709,8.67170637 23.486548,7.8127476 22.6053636,7.09203813 C20.8303928,5.60659346 18.5925112,4.77357087 16.2768241,4.73212422 C17.1895456,5.88128186 18.113991,7.05477551 19.7262843,9.10634446 L20.1586326,9.65648771 L19.6239501,10.1100602 C18.9999839,10.6393724 18.3423743,11.1628639 17.4788588,11.825923 C17.4096275,11.879083 16.5732829,12.5161871 15.9451818,12.9972545 C16.2043135,13.323892 16.5038966,13.6960791 16.9627633,14.2637467 C17.4165048,14.8250738 17.7162448,15.1974145 17.9754464,15.5239584 C18.4323942,15.1510479 18.9308258,14.7594674 19.5276024,14.3012265 C19.6236846,14.2274488 21.1973104,13.028931 21.6412177,12.6837439 L22.4846671,12.0278687 L22.8028255,13.0416896 C23.1700264,14.2117861 23.2082079,15.4587793 22.9148251,16.6423307 C22.6789894,17.6322933 22.2291036,18.5598887 21.5993127,19.3571924 C20.5858571,20.6588066 19.1376336,21.536089 17.5387829,21.8513041 C17.5504814,21.864879 17.5622815,21.8784936 17.5741852,21.8921507 Z"/>
    <filter id="fun-d" width="113.6%" height="113.6%" x="-6.8%" y="-6.8%" filterUnits="objectBoundingBox">
      <feOffset in="SourceAlpha" result="shadowOffsetOuter1"/>
      <feGaussianBlur in="shadowOffsetOuter1" result="shadowBlurOuter1" stdDeviation=".5"/>
      <feColorMatrix in="shadowBlurOuter1" values="0 0 0 0 0   0 0 0 0 0   0 0 0 0 0  0 0 0 0.204257246 0"/>
    </filter>
  </defs>
  <g fill="none" fill-rule="evenodd">
    <use fill="#000" filter="url(#fun-a)" xlink:href="#fun-b"/>
    <use fill="#ED1968" xlink:href="#fun-b"/>
    <use fill="url(#fun-c)" style="mix-blend-mode:soft-light" xlink:href="#fun-b"/>
    <circle cx="16" cy="15" r="14.5" stroke="#000" stroke-opacity=".097"/>
    <g fill-rule="nonzero">
      <use fill="#000" filter="url(#fun-d)" xlink:href="#fun-e"/>
      <use fill="#FFF" fill-rule="evenodd" xlink:href="#fun-e"/>
    </g>
  </g>
</svg>
